X:1
T:What Are You Doing The Rest Of Your Life
C:Michel Legrand
L:1/8
M:C
I:linebreak $
K:C
"Bb7" z2 CD EF^GA ||"Am" B2 BA"AmM" B4 |"Am/G" z2 BA B"Gbø"cBA |"F" G2 GF"F+" G4 |$
"F6" z2 GF"F/E" GAGF |"Dm" E2 ED"DmM" E4 |"Dm" z2 ED"Dm/C" EFED ||1"Bø" B,8 :|[K:A][]2$
"A" C4"Bm" z4 |"C#m" z2 E2"D" A2 e2 ||"Bm" e^dec"Bb7" =dcd=c |"A" c2 E2"F#m" A2 e2 |$
"Bm" e^dec"Bb7" =dcd=c |"A" c4"D" z ccc ||[K:Gb]"Abm" d=cdB"G7" _cB_c=A |"Gb" B2 D2"Gb6" =CDGB ||$
[K:F]"Gm" c=BcA"Gb7" _BA_B^G |"F" A2 CD"Dm" EF^GA ||[K:C]"Am" B2 BA"AmM" B4 |
"Am/G" z2 BA"Gbø" BcBA |$"F" G2 GF"F+" G4 |"F6" z2 GF"F/E" GAGF |"Dm" E2 ED"DmM" E4 |
"Dm" z2 ED"Dm/C" EFED |"Bø" B,8 |$"E7" z4"Am" z2 C2 |"Dm" D2 DC"Dm/C" D4 |
"Bø" z2 DC"Bb7" DEDC |"Am" A2 AG A4 |$"D7" z2 AG ABAG |"Bø" E2 ED E2 D2 |"Bb7" E2 ED E2 E2 |
"Am6" A8 |]

